local/share/icons/dracula-icons-main/scalable/apps/pcsx-icon.svg

<?xml version="1.0" encoding="UTF-8"?>
<svg xmlns="http://www.w3.org/2000/svg" xmlns:xlink="http://www.w3.org/1999/xlink" width="64" height="64" viewBox="0 0 64 64">
<path fill-rule="nonzero" fill="rgb(27.843137%, 41.568627%, 80%)" fill-opacity="1" d="M 15.609375 8.464844 C 15.609375 12.410156 12.410156 15.609375 8.464844 15.609375 C 4.519531 15.609375 1.324219 12.410156 1.324219 8.464844 C 1.324219 4.519531 4.519531 1.324219 8.464844 1.324219 C 12.410156 1.324219 15.609375 4.519531 15.609375 8.464844 Z M 15.609375 8.464844 "/>
<path fill-rule="nonzero" fill="rgb(100%, 100%, 100%)" fill-opacity="1" d="M 8.464844 5.707031 C 5.015625 5.707031 3.980469 6.746094 3.980469 11.058594 C 3.980469 11.746094 6.394531 10.195312 7.085938 9.160156 L 9.847656 9.160156 C 10.535156 10.195312 12.953125 11.738281 12.953125 11.058594 C 12.953125 6.742188 11.917969 5.707031 8.464844 5.707031 Z M 10.535156 6.742188 C 10.726562 6.742188 10.882812 6.894531 10.882812 7.085938 C 10.882812 7.277344 10.726562 7.429688 10.535156 7.429688 C 10.347656 7.429688 10.191406 7.277344 10.191406 7.085938 C 10.191406 6.894531 10.347656 6.742188 10.535156 6.742188 Z M 6.394531 6.746094 L 6.742188 6.746094 L 6.742188 7.433594 L 7.429688 7.433594 L 7.429688 7.78125 L 6.742188 7.78125 L 6.742188 8.46875 L 6.394531 8.46875 L 6.394531 7.78125 L 5.707031 7.78125 L 5.707031 7.433594 L 6.394531 7.433594 Z M 9.847656 7.429688 C 10.039062 7.429688 10.191406 7.585938 10.191406 7.777344 C 10.191406 7.96875 10.039062 8.121094 9.847656 8.121094 C 9.65625 8.121094 9.5 7.96875 9.5 7.777344 C 9.5 7.585938 9.65625 7.429688 9.847656 7.429688 Z M 11.226562 7.429688 C 11.417969 7.429688 11.574219 7.585938 11.574219 7.777344 C 11.574219 7.96875 11.417969 8.121094 11.226562 8.121094 C 11.035156 8.121094 10.882812 7.96875 10.882812 7.777344 C 10.882812 7.585938 11.035156 7.429688 11.226562 7.429688 Z M 10.535156 8.121094 C 10.726562 8.121094 10.882812 8.277344 10.882812 8.464844 C 10.882812 8.65625 10.726562 8.8125 10.535156 8.8125 C 10.347656 8.8125 10.191406 8.65625 10.191406 8.464844 C 10.191406 8.277344 10.347656 8.121094 10.535156 8.121094 Z M 10.535156 8.121094 "/>
</svg>

<svg width="64" height="64" version="1.1" viewBox="0 0 16.933 16.933" xmlns="http://www.w3.org/2000/svg">
 <defs>
  <linearGradient id="c" x1="399.57" x2="399.57" y1="545.8" y2="517.8" gradientTransform="matrix(2.1429,0,0,2.1429,-826.36,-1107.5)" gradientUnits="userSpaceOnUse">
   <stop stop-color="#3889e9" offset="0"/>
   <stop stop-color="#5ea5fb" offset="1"/>
  </linearGradient>
 </defs>
 <g transform="matrix(.23811 0 0 .23811 .84214 .83643)" stroke-width="1.5715">
  <circle cx="32.02" cy="32.044" r="30.001" fill="#476acc"/>
  <circle cx="32.02" cy="32.044" r="30.001" fill-opacity="0"/>
  <circle cx="32.02" cy="32.044" r="0" fill="url(#c)"/>
 </g>
 <path d="m8.4665 5.7057c-3.451 0-4.4863 1.0388-4.4863 5.3512 0 0.68917 2.4157-0.86276 3.1059-1.8981h2.7608c0.6902 1.0353 3.1059 2.5779 3.1059 1.8981 0-4.3138-1.0353-5.3512-4.4863-5.3512zm2.0706 1.0353a0.3451 0.3451 0 0 1 0.3451 0.3451 0.3451 0.3451 0 0 1-0.3451 0.3451 0.3451 0.3451 0 0 1-0.3451-0.3451 0.3451 0.3451 0 0 1 0.3451-0.3451zm-4.1412 0.00346h0.3451v0.6902h0.6902v0.3451h-0.6902v0.6902h-0.3451v-0.69021h-0.6902v-0.3451h0.6902zm3.451 0.68675a0.3451 0.3451 0 0 1 0.3451 0.3451 0.3451 0.3451 0 0 1-0.3451 0.3451 0.3451 0.3451 0 0 1-0.3451-0.3451 0.3451 0.3451 0 0 1 0.3451-0.3451zm1.3804 0a0.3451 0.3451 0 0 1 0.3451 0.3451 0.3451 0.3451 0 0 1-0.3451 0.3451 0.3451 0.3451 0 0 1-0.3451-0.3451 0.3451 0.3451 0 0 1 0.3451-0.3451zm-0.6902 0.6902a0.3451 0.3451 0 0 1 0.3451 0.3451 0.3451 0.3451 0 0 1-0.3451 0.3451 0.3451 0.3451 0 0 1-0.3451-0.3451 0.3451 0.3451 0 0 1 0.3451-0.3451z" fill="#ffffff" stroke-width=".3451"/>
</svg>
